X:265
T:Grönbo
C:Svante Kvarnstrom
Z:robin.beech@mcgill.ca
R:reel
M:4/4
L:1/8
K:G
B3B- BAGA | Bded g2ga | bggf gedB | A2AG ABGA |
B3B- BAGA | Bded g2ga | bggf gedB |1 AGAB G2GA :|2 AGAB G2Bd
e3e- edcd | Bdde dBAG | A3A- AGAB | GAAG ABcd |
e3e- edcd | Bdde dBAG | Az AB G2GB | Az AB GABc | GAAG ABcd |
e3e- edcd | Bdde dBAG | A3A- AGAB | GAAG ABcd |
ezeg dzdg | ezeg dBAG | A3A- AGAB | d4- d2GA |]
